ai-everyone/public/logo.svg

<svg width="59" height="36" viewBox="0 0 59 36" fill="none" xmlns="http://www.w3.org/2000/svg">
<path d="M20.0898 18C20.0898 19.1046 19.1944 20 18.0898 20C16.9853 20 16.0898 19.1046 16.0898 18C16.0898 16.8954 16.9853 16 18.0898 16C19.1944 16 20.0898 16.8954 20.0898 18Z" fill="#CECECE"></path>
<path d="M42.0898 18C42.0898 19.1046 41.1944 20 40.0898 20C38.9853 20 38.0898 19.1046 38.0898 18C38.0898 16.8954 38.9853 16 40.0898 16C41.1944 16 42.0898 16.8954 42.0898 18Z" fill="#CECECE"></path>
<path fill-rule="evenodd" clip-rule="evenodd" d="M40.0899 2.0365e-06C40.7659 2.1547e-06 41.4332 0.0372686 42.0898 0.109859V2.12379C41.4347 2.04209 40.7672 2 40.0899 2C36.5517 2 33.2835 3.14743 30.6345 5.09135C31.1162 5.55951 31.5717 6.0544 31.9988 6.57362C34.2835 4.95312 37.0764 4 40.0899 4C40.7689 4 41.4367 4.04834 42.0898 4.14177V6.16591C41.4394 6.0568 40.7713 6 40.0899 6C37.5171 6 35.1352 6.80868 33.1819 8.18644C33.547 8.74673 33.8817 9.3286 34.1837 9.92973C35.8384 8.71698 37.8811 8 40.0899 8C40.7748 8 41.4436 8.06886 42.0898 8.20003V10.252C41.4506 10.0875 40.7805 10 40.0899 10C38.1572 10 36.386 10.6843 35.0029 11.8253C35.2578 12.5233 35.4707 13.2415 35.6386 13.9768C36.7365 12.7628 38.3241 12 40.0899 12C40.7911 12 41.4643 12.1203 42.0898 12.3414V14.5351C41.5015 14.1948 40.8185 14 40.0899 14C37.8808 14 36.0899 15.7909 36.0899 18C36.0899 20.2091 37.8808 22 40.0899 22C42.299 22 44.0899 20.2091 44.0899 18L44.0898 17.9791V0.446033C52.1058 2.26495 58.0899 9.43365 58.0899 18C58.0899 27.9411 50.031 36 40.0899 36C35.9474 36 32.1317 34.6006 29.0898 32.2488C26.0482 34.6002 22.2313 36 18.0898 36C17.4138 36 16.7465 35.9627 16.0898 35.8901V33.8762C16.745 33.9579 17.4125 34 18.0898 34C21.6281 34 24.8962 32.8525 27.5452 30.9086C27.0636 30.4405 26.6081 29.9456 26.181 29.4264C23.8963 31.0469 21.1033 32 18.0899 32C17.4108 32 16.7431 31.9517 16.0898 31.8582V29.8341C16.7403 29.9432 17.4085 30 18.0899 30C20.6628 30 23.0446 29.1913 24.9979 27.8136C24.6328 27.2533 24.2981 26.6714 23.996 26.0703C22.3414 27.283 20.2987 28 18.0899 28C17.405 28 16.7361 27.9311 16.0898 27.7999V25.7479C16.7291 25.9125 17.3993 26 18.0899 26C20.0226 26 21.7938 25.3157 23.1769 24.1747C22.922 23.4767 22.7091 22.7585 22.5412 22.0232C21.4433 23.2372 19.8557 24 18.0899 24C17.3886 24 16.7154 23.8797 16.0898 23.6586V21.4648C16.6782 21.8052 17.3613 22 18.0899 22C20.299 22 22.0899 20.2091 22.0899 18C22.0899 15.7909 20.299 14 18.0899 14C15.8808 14 14.0899 15.7909 14.0899 18L14.0898 35.554C6.07389 33.7351 0.0898438 26.5663 0.0898438 18C0.0898438 8.05887 8.14877 0 18.0899 0C22.2324 0 26.048 1.39934 29.0899 3.75111C32.1316 1.3998 35.9483 0 40.0899 2.0365e-06ZM46.0898 3.16303V5.34723C50.8198 7.59414 54.0899 12.4152 54.0899 18C54.0899 25.732 47.8219 32 40.0899 32C32.3579 32 26.0899 25.732 26.0899 18C26.0899 13.5817 22.5082 10 18.0899 10C13.6716 10 10.0899 13.5817 10.0899 18C10.0899 20.0289 10.8452 21.8814 12.0899 23.2916V18C12.0899 14.6863 14.7762 12 18.0899 12C21.4036 12 24.0899 14.6863 24.0899 18C24.0899 26.8366 31.2533 34 40.0899 34C48.9265 34 56.0898 26.8366 56.0898 18C56.0898 11.2852 51.9535 5.53658 46.0898 3.16303ZM12.0899 26.0007L12.0898 28.3946C8.50306 26.3197 6.0899 22.4417 6.0899 18C6.0899 11.3726 11.4625 6 18.0899 6C24.7173 6 30.0899 11.3726 30.0899 18C30.0899 23.5228 34.5671 28 40.0899 28C45.6127 28 50.0899 23.5228 50.0899 18C50.0899 14.7284 48.5188 11.8237 46.0899 9.99929V7.60538C49.6767 9.68023 52.0899 13.5583 52.0899 18C52.0899 24.6274 46.7173 30 40.0899 30C33.4625 30 28.0899 24.6274 28.0899 18C28.0899 12.4772 23.6127 8 18.0899 8C12.567 8 8.08992 12.4772 8.08992 18C8.08992 21.2716 9.66101 24.1763 12.0899 26.0007ZM4.0899 18C4.0899 23.5848 7.35998 28.4058 12.0898 30.6527V32.837C6.2262 30.4634 2.08989 24.7148 2.0899 18C2.0899 9.16344 9.25334 2 18.0899 2C26.9265 2 34.0899 9.16344 34.0899 18C34.0899 21.3137 36.7762 24 40.0899 24C43.4036 24 46.0899 21.3137 46.0899 18L46.0899 12.7084C47.3346 14.1186 48.0899 15.9711 48.0899 18C48.0899 22.4183 44.5082 26 40.0899 26C35.6716 26 32.0899 22.4183 32.0899 18C32.0899 10.268 25.8219 4 18.0899 4C10.3579 4 4.0899 10.268 4.0899 18Z" fill="#CECECE"></path>
</svg>

<svg xmlns="http://www.w3.org/2000/svg" width="59" height="36" fill="none" viewBox="0 0 59 36"><path fill="#cecece" d="M20.09 18a2 2 0 1 1-4 0 2 2 0 0 1 4 0m22 0a2 2 0 1 1-4 0 2 2 0 0 1 4 0"/><path fill="#cecece" fill-rule="evenodd" d="M40.09 0q1.014 0 2 .11v2.014a16 16 0 0 0-2-.124 15.92 15.92 0 0 0-9.456 3.091q.724.703 1.365 1.483A13.94 13.94 0 0 1 40.089 4q1.021 0 2 .142v2.024Q41.114 6 40.09 6a11.94 11.94 0 0 0-6.907 2.186q.548.841 1.002 1.744A9.96 9.96 0 0 1 40.09 8q1.03.002 2 .2v2.052a8 8 0 0 0-2-.252 7.96 7.96 0 0 0-5.087 1.825q.383 1.048.636 2.152A6 6 0 0 1 40.089 12c.702 0 1.375.12 2 .341v2.194a4 4 0 1 0 2 3.465V.446c8.017 1.819 14 8.988 14 17.554 0 9.941-8.058 18-18 18a17.93 17.93 0 0 1-11-3.751 17.93 17.93 0 0 1-11 3.751q-1.013 0-2-.11v-2.014q.985.123 2 .124c3.54 0 6.807-1.148 9.456-3.091a18 18 0 0 1-1.364-1.483A13.94 13.94 0 0 1 18.09 32q-1.02 0-2-.142v-2.024q.977.166 2 .166c2.573 0 4.955-.809 6.908-2.186q-.548-.841-1.002-1.744A9.96 9.96 0 0 1 18.09 28q-1.03-.002-2-.2v-2.052a8 8 0 0 0 2 .252 7.96 7.96 0 0 0 5.087-1.825 18 18 0 0 1-.636-2.152A6 6 0 0 1 18.09 24c-.701 0-1.375-.12-2-.341v-2.194a4 4 0 1 0-2-3.465v17.554C6.074 33.735.09 26.566.09 18c0-9.941 8.059-18 18-18 4.142 0 7.958 1.4 11 3.751A17.93 17.93 0 0 1 40.09 0m6 3.163v2.184c4.73 2.247 8 7.068 8 12.653 0 7.732-6.268 14-14 14s-14-6.268-14-14a8 8 0 1 0-14 5.292V18a6 6 0 0 1 12 0c0 8.837 7.163 16 16 16s16-7.163 16-16c0-6.715-4.137-12.463-10-14.837m-34 22.838v2.394A12 12 0 0 1 6.09 18c0-6.627 5.373-12 12-12s12 5.373 12 12c0 5.523 4.477 10 10 10s10-4.477 10-10a9.99 9.99 0 0 0-4-8V7.604c3.587 2.075 6 5.953 6 10.395 0 6.627-5.373 12-12 12-6.628 0-12-5.373-12-12 0-5.523-4.477-10-10-10s-10 4.477-10 10a9.99 9.99 0 0 0 4 8M4.09 18c0 5.585 3.27 10.406 8 12.653v2.184c-5.864-2.374-10-8.122-10-14.837 0-8.837 7.163-16 16-16s16 7.163 16 16a6 6 0 0 0 12 0v-5.292a8 8 0 1 1-14 5.292c0-7.732-6.268-14-14-14s-14 6.268-14 14" clip-rule="evenodd"/></svg>
